X: 140
T: Hunter's House
R: reel
C:Ed Reavy
M: 4/4
L: 1/8
K:Gmaj
A|:"G"BddB "D7"cAFA |"G" G2BG DGBG | "G"BddB "D7"cAFA |"G"GBAG "D"FGEF |
"G"D~G3 A~G3 | BGAF GABc |"D"defg agfd |"D7" cAFA "G"G3A :|
|: "G" B2gB aBgB | B2gf "C"edcB |"D" A~a3 b~a3 | Aaaf "G"gfed |
"G"B2gB aBgB | B2gf "C"edcB | "a7"cBAg "D"fgaf | "G"gdBd "D7"cAFA:|


